X: 91
T: Ruder Es
B:[[Notböcker/Melodier til gamle danske Almuedanse for Violin solo]]
O:Danmark
Z:Søren Bak Vestergaard
M: 2/4
L: 1/8
K: D
A|dd/e/ fe/d/|c/e/d/B/ AA|BB/c/ dc/B/|A2 z:|\
|:[M: 6/8]A|(.f2 .f) fef|d2 A A2 A|(.g2 .g) gfg|e2 e e2 f|\
a2 a f2 f|g2 g e2 e|fdf age|(.d2 .d) d2:|

